src/svg/media-play-outline.svg

<svg version="1.2" baseProfile="tiny" xmlns="http://www.w3.org/2000/svg" width="24" height="24" viewBox="0 0 24 24"><path d="M8.998 7.002l.085.078 5.051 4.92-5.096 4.964-.038.036-.002-9.998m.002-2.002c-1.104 0-2 .896-2 2v10c0 1.104.896 2 2 2 .543 0 1.033-.218 1.393-.568 2.644-2.573 6.607-6.432 6.607-6.432s-3.963-3.859-6.604-6.433c-.363-.349-.853-.567-1.396-.567z"/></svg>

<?xml version="1.0" encoding="iso-8859-1"?>
<!-- Generator: Adobe Illustrator 16.2.1, SVG Export Plug-In . SVG Version: 6.00 Build 0)  -->
<svg version="1.2" baseProfile="tiny" xmlns="http://www.w3.org/2000/svg" xmlns:xlink="http://www.w3.org/1999/xlink" x="0px"
	 y="0px" width="24px" height="24px" viewBox="0 0 24 24" xml:space="preserve">
<g id="Layer_1">
	<g>
		<path d="M8.998,7.002C9.025,7.028,9.054,7.055,9.083,7.08L14.134,12l-5.096,4.964C9.025,16.976,9.013,16.988,9,17L8.998,7.002
			 M9,5C7.896,5,7,5.896,7,7v10c0,1.104,0.896,2,2,2c0.543,0,1.033-0.218,1.393-0.568C13.037,15.859,17,12,17,12
			s-3.963-3.859-6.604-6.433C10.033,5.218,9.543,5,9,5z"/>
	</g>
</g>
<g id="nyt_x5F_exporter_x5F_info" display="none">
</g>
</svg>
